X:1
T:Standin In The Need of Prayer
T:Many thousand gone
T:Copyright 1881 by The Riverside Press
T:Rodeheaver's Plantation Melodies
Z:Rodeheaver's Plantation Melodies
%%score [ 1 2 3 4 ]
L:1/8
Q:1/4=70
M:4/8
K:Eb
V:1 treble nm="Soprano" snm="S."
V:2 treble nm="Alto" snm="A."
V:3 bass nm="Tenor" snm="T."
V:4 bass nm="Bass" snm="B."
V:1
 BBcc | B>G E2 | A G3 | A F3 | BBcc | B>G E2 | A<GF>F | E4 |] %8
w: No more auc- tion|block for me.|||No more auc- tion|block for me|||
V:2
 z4 | z4 | E E3 | F D3 | z4 | z4 | E<ED>D | E4 |] %8
w: ||No more,|no more|||Ma- ny thou- sand|gone.|
V:3
 z4 | z4 | C B,3 | B, B,3 | z4 | z4 | C<B,A,>A, | G,4 |] %8
V:4
 z4 | z4 | E, E,3 | B,, B,,3 | %4
"_2. No more peck o'corn for me\n\n3. No more driver's lash for me\n\n4. No more pint o'salt for me\n\n5. No more hundred lash for me\n\n6. No more mistress' call for me\n" z4 | %5
 z4 | E,<E,B,,>B,, | E,4 |] %8

